!!!OTL:Der zurueckgewiesene Freier.
!!!OTL-incipit:JA WIR SIND ARM UND IHR SEID REICH
!!!COM: H. Langer
!!!ARE: Europa, Mitteleuropa, Deutschland; Schottland?
!!!SCT: F0188
!!!TXL: @@DE
!!!YEM: Copyright 1995, estate of Helmut Schaffrath.
**kern	**text
*ICvox	*
*M3/4	*
*k[b-]	*
*F:	*
!LO:TX:a:t=Locer und lustig.	!
!LO:TX:a:t=Ges. v. H. Langer	!
!LO:TX:a:t=Schottisches Volkslied.	!
{8e	1._Ja,
=1	=1
8f	wir
8a	ſind
4.g^	arm
8e	und
=2	=2
8f	ihr
8dd	ſeid
4.cc}	reich,
{8b-	doch
=3	=3
8a	ho-
8f	-her
4.g^	Herr,
8e	das
=4	=4
8f	iſt
8f	mit
4.f}	gleich
{8e	.
=5	=5
8f	gebt
8a	ihr
4.g	mit
8e	die
=6	=6
8f	hal-
8dd	-be
4.cc^}	Welt,
{8b-	nehm'
=7	=7
8a	ich
8f	doch
4.g	den,
8e	der
=8	=8
8f	mir
8f	ge-
4.f}	-fällt
{8cc	.
=9	=9
8cc	glei-
8cc	-chet
4.cc	Stand
8dd	wählt
=10	=10
8dd	ſich
8dd	im
4.dd}	Land
{8cc	und
=11	=11
8cc	was
8ff	ſich
4.ff	find't
8cc	ſei
=12	=12
8cc	gleich
16ddL	ge-
16eeJ	.
(4.ff^}	-ſinnt.
{8e)	.
=13	=13
8f	laßt
8a	nur
4.g^	eu-
8e	-ren
=14	=14
8f	Ʒeit-
8dd	-ver-
4.cc^}	-treib,
{8b-	Hans
=15	=15
8a	wird
8f	mein
4.g	Mann
8e	und
=16	=16
8f	ich
8f	ſein
4f	Weib!
8r}	.
==	==
!!!AGN: Liebes - Lied
!!!ONB: ESAC (Essen Associative Code) Database: FINK
!!!AMT: simple triple
!!!AIN: vox
!!!EED: Helmut Schaffrath
!!!EEV: 1.0
!!!source: Musikalischer Hausschatz der Deutschen. Eine Sammlung von über 1000 Liedern und Gesängen mit Singstimmen und Klavierbegleitung. Leipzig, Litterarisches Verlags-Haus.
!!!page: 110
!!!ENC: Anna Maria Matuszewska
!!!EEV: 2025/03/11
*-	*-
